dist/img/clock.svg

<svg width="17" height="17" viewBox="0 0 17 17" fill="none" xmlns="http://www.w3.org/2000/svg">
<path d="M8.5 0C3.80558 0 0 3.80558 0 8.5C0 13.1944 3.80558 17 8.5 17C13.1944 17 17 13.1944 17 8.5C16.994 3.80809 13.1919 0.00601673 8.5 0ZM8.86465 16.2525V14.7574C8.86465 14.556 8.70138 14.3928 8.5 14.3928C8.29862 14.3928 8.13535 14.556 8.13535 14.7574V16.2525C4.13691 16.0616 0.938428 12.8631 0.747533 8.86465H2.2426C2.44398 8.86465 2.60725 8.70138 2.60725 8.5C2.60725 8.29862 2.44398 8.13535 2.2426 8.13535H0.747533C0.938428 4.13691 4.13691 0.938428 8.13535 0.747533V2.2426C8.13535 2.44398 8.29862 2.60725 8.5 2.60725C8.70138 2.60725 8.86465 2.44398 8.86465 2.2426V0.747533C12.8631 0.938428 16.0616 4.13691 16.2525 8.13535H14.7574C14.556 8.13535 14.3928 8.29862 14.3928 8.5C14.3928 8.70138 14.556 8.86465 14.7574 8.86465H14.761H16.2561C16.0651 12.8644 12.8645 16.0634 8.86465 16.2525Z" fill="#005FA3"/>
<path d="M12.3471 11.8913L8.86465 8.35049V4.67117C8.86465 4.46979 8.70137 4.30652 8.5 4.30652C8.29862 4.30652 8.13535 4.46979 8.13535 4.67117V8.5C8.13576 8.59568 8.17373 8.68734 8.24109 8.75526L11.8256 12.4018C11.9666 12.5458 12.1976 12.5482 12.3416 12.4072C12.4856 12.2662 12.488 12.0352 12.3471 11.8913Z" fill="#005FA3"/>
</svg>

<svg width="17" height="17" viewBox="0 0 17 17" fill="none" xmlns="http://www.w3.org/2000/svg"><path d="M8.5 0A8.5 8.5 0 1 0 17 8.5 8.51 8.51 0 0 0 8.5 0zm.365 16.253v-1.496a.365.365 0 0 0-.73 0v1.496A7.767 7.767 0 0 1 .748 8.865h1.495a.365.365 0 0 0 0-.73H.748A7.767 7.767 0 0 1 8.135.748v1.495a.365.365 0 0 0 .73 0V.748a7.767 7.767 0 0 1 7.388 7.387h-1.496a.365.365 0 0 0 0 .73h1.499a7.767 7.767 0 0 1-7.391 7.388z" fill="#005FA3"/><path d="M12.347 11.891l-3.482-3.54V4.67a.365.365 0 0 0-.73 0V8.5c0 .096.039.187.106.255l3.585 3.647a.365.365 0 0 0 .521-.51z" fill="#005FA3"/></svg>
